assets/images/settings_sip_accounts_selected.svg

<?xml version="1.0" encoding="UTF-8"?>
<svg width="19px" height="18px" viewBox="0 0 19 18" version="1.1" xmlns="http://www.w3.org/2000/svg" xmlns:xlink="http://www.w3.org/1999/xlink">
    <!-- Generator: Sketch 42 (36781) - http://www.bohemiancoding.com/sketch -->
    <title>settings_account_selected</title>
    <desc>Created with Sketch.</desc>
    <defs></defs>
    <g id="Symbols" stroke="none" stroke-width="1" fill="none" fill-rule="evenodd" stroke-linecap="round" stroke-linejoin="round">
        <g id="settings_account_selected" class="color-i-stroke" stroke="#FE5E00" stroke-width="1.5">
            <path d="M9.40087269,0.75 C11.815196,0.75 13.7728222,2.69537597 13.7728222,5.0925101 C13.7728222,6.23965754 13.3247653,7.28396572 12.5928155,8.06015727 C12.4891329,8.16911791 12.5298653,8.15075376 12.4163082,8.24869591 L12.5989871,8.37112359 C19.2223301,11.2359315 17.5251447,16.0522368 17.5251447,16.0522368 C13.2581122,17.3964928 9.40827859,17.1883657 9.40827859,17.1883657 L9.31076757,17.1883657 C9.31076757,17.1883657 5.460934,17.3964928 1.19513573,16.0522368 C1.19513573,16.0522368 -0.503283956,11.2359315 6.1212934,8.37112359 L6.30273794,8.24869591 C6.18918081,8.15075376 6.22991326,8.16911791 6.12746498,8.06015727 C5.39551522,7.28396572 4.94745828,6.23965754 4.94745828,5.0925101 C4.94745828,2.69537597 6.90385014,0.75 9.31817347,0.75 L9.40087269,0.75 L9.40087269,0.75 Z" id="new_conference_default"></path>
        </g>
    </g>
</svg>

<?xml version="1.0" encoding="UTF-8" standalone="no"?>
<svg
   xmlns:dc="http://purl.org/dc/elements/1.1/"
   xmlns:cc="http://creativecommons.org/ns#"
   xmlns:rdf="http://www.w3.org/1999/02/22-rdf-syntax-ns#"
   xmlns:svg="http://www.w3.org/2000/svg"
   xmlns="http://www.w3.org/2000/svg"
   xmlns:sodipodi="http://sodipodi.sourceforge.net/DTD/sodipodi-0.dtd"
   xmlns:inkscape="http://www.inkscape.org/namespaces/inkscape"
   width="19"
   height="19"
   viewBox="0 0 19 19"
   version="1.1"
   id="svg11"
   sodipodi:docname="settings_sip_accounts_selected.svg"
   inkscape:version="0.92.2 2405546, 2018-03-11">
  <metadata
     id="metadata15">
    <rdf:RDF>
      <cc:Work
         rdf:about="">
        <dc:format>image/svg+xml</dc:format>
        <dc:type
           rdf:resource="http://purl.org/dc/dcmitype/StillImage" />
        <dc:title>settings_account_selected</dc:title>
      </cc:Work>
    </rdf:RDF>
  </metadata>
  <sodipodi:namedview
     pagecolor="#ffffff"
     bordercolor="#666666"
     borderopacity="1"
     objecttolerance="10"
     gridtolerance="10"
     guidetolerance="10"
     inkscape:pageopacity="0"
     inkscape:pageshadow="2"
     inkscape:window-width="868"
     inkscape:window-height="480"
     id="namedview13"
     showgrid="false"
     inkscape:zoom="13.111111"
     inkscape:cx="9.5"
     inkscape:cy="9"
     inkscape:window-x="0"
     inkscape:window-y="35"
     inkscape:window-maximized="0"
     inkscape:current-layer="svg11" />
  <!-- Generator: Sketch 42 (36781) - http://www.bohemiancoding.com/sketch -->
  <title
     id="title2">settings_account_selected</title>
  <desc
     id="desc4">Created with Sketch.</desc>
  <defs
     id="defs6" />
  <g
     id="Symbols"
     style="fill:none;fill-rule:evenodd;stroke:none;stroke-width:1;stroke-linecap:round;stroke-linejoin:round"
     transform="translate(0,0.5)">
    <g
       id="settings_account_selected"
       class="color-i-stroke"
       style="stroke:#fe5e00;stroke-width:1.5">
      <path
         d="m 9.4008727,0.75 c 2.4143233,0 4.3719493,1.945376 4.3719493,4.3425101 0,1.1471474 -0.448057,2.1914556 -1.180006,2.9676472 -0.103683,0.1089606 -0.06295,0.090597 -0.176508,0.1885386 l 0.182679,0.1224277 c 6.623343,2.8648084 4.926158,7.6811134 4.926158,7.6811134 -4.267033,1.344256 -8.1168664,1.136129 -8.1168664,1.136129 h -0.097511 c 0,0 -3.8498336,0.208127 -8.1156319,-1.136129 0,0 -1.69841966,-4.816305 4.9261577,-7.6811134 L 6.3027379,8.2486959 C 6.1891808,8.1507538 6.2299133,8.1691179 6.127465,8.0601573 5.3955152,7.2839657 4.9474583,6.2396575 4.9474583,5.0925101 4.9474583,2.695376 6.9038501,0.75 9.3181735,0.75 Z"
         id="new_conference_default"
         inkscape:connector-curvature="0" />
    </g>
  </g>
</svg>
